X: 2290
T: TERENCE'S RAMBLE
R: Irish Reel.
%R: reel
B: James Kerr "Merry Melodies" v.2 p.32 #290
Z: 2016 John Chambers <jc:trillian.mit.edu>
M: C
L: 1/8
K: F
|:\
(cF) (3FFF cFAF | defg afef |\
(cF) (3FFF cFAc |[1 dfcA (AG)G2 :|[2 dfcA (GF)F2 ||
|:\
vg2(ag) f2c2 | dfcf dfcf |\
[1 g2(ag) fdde | fdcA (AG)G2 :|\
[2 (af) (3gfe fdde | fdcA (GF)F2 |]
